img/discuss-line.svg

<svg width="24" height="24" viewBox="0 0 24 24" fill="none" xmlns="http://www.w3.org/2000/svg">
<path fill-rule="evenodd" clip-rule="evenodd" d="M1.36191 13.2333C0.498805 12.0055 0 10.5545 0 9C0 4.58172 4.02944 1 9 1C13.9706 1 18 4.58172 18 9C18 13.39 14.0221 16.954 9.09547 16.9996C9.06369 16.9999 9.03187 17 9 17C8.39569 17 7.80529 16.9471 7.23434 16.8461C7.18611 16.8376 7.13802 16.8287 7.09006 16.8195C6.5704 16.7197 6.06745 16.58 5.58545 16.4042L1.73074 17.5055C0.976391 17.721 0.278969 17.0236 0.494498 16.2693L1.36191 13.2333ZM2.58906 12.3707C2.84958 12.7413 2.92865 13.2098 2.80419 13.6454L2.18403 15.816L5.17337 14.9619C5.47783 14.8749 5.80201 14.8865 6.09947 14.995C6.98793 15.3191 7.96696 15.5 9 15.5C13.3131 15.5 16.5 12.4286 16.5 9C16.5 5.57136 13.3131 2.5 9 2.5C4.68689 2.5 1.5 5.57136 1.5 9C1.5 10.2251 1.89127 11.378 2.58906 12.3707Z" fill="white"/>
<path d="M18.89 5.78381C19.1357 6.40533 19.3122 7.05966 19.4103 7.7405C21.3142 8.95004 22.5 10.9086 22.5 13C22.5 14.2251 22.1087 15.378 21.411 16.3707C21.1504 16.7413 21.0714 17.2098 21.1958 17.6454L21.816 19.816L18.8266 18.9619C18.5222 18.8749 18.198 18.8865 17.9005 18.995C17.0121 19.3191 16.0331 19.5 15 19.5C13.3959 19.5 11.9476 19.0752 10.761 18.3651C10.1858 18.4539 9.59716 18.5 9.00001 18.5C8.81586 18.5 8.63273 18.4957 8.45073 18.4872C10.0918 20.0343 12.419 21 15 21C16.2086 21 17.3616 20.7882 18.4146 20.4042L22.2693 21.5055C23.0236 21.721 23.721 21.0236 23.5055 20.2693L22.6381 17.2333C23.5012 16.0055 24 14.5545 24 13C24 9.8202 21.9129 7.0737 18.89 5.78381Z" fill="white"/>
</svg>

<svg width="24" height="24" fill="none" xmlns="http://www.w3.org/2000/svg"><path fill-rule="evenodd" clip-rule="evenodd" d="M1.362 13.233C.499 12.005 0 10.555 0 9c0-4.418 4.03-8 9-8s9 3.582 9 8c0 4.39-3.978 7.954-8.905 8a10.115 10.115 0 0 1-2.005-.18c-.52-.1-1.023-.24-1.505-.416l-3.854 1.102a1 1 0 0 1-1.237-1.237l.868-3.036Zm1.227-.862c.26.37.34.839.215 1.274l-.62 2.171 2.99-.854a1.5 1.5 0 0 1 .925.033A8.457 8.457 0 0 0 9 15.5c4.313 0 7.5-3.071 7.5-6.5S13.313 2.5 9 2.5C4.687 2.5 1.5 5.571 1.5 9c0 1.225.391 2.378 1.09 3.37Z" fill="#fff"/><path d="M18.89 5.784c.246.621.422 1.276.52 1.957C21.314 8.95 22.5 10.909 22.5 13c0 1.225-.391 2.378-1.089 3.37a1.5 1.5 0 0 0-.215 1.275l.62 2.171-2.99-.854a1.5 1.5 0 0 0-.925.033A8.457 8.457 0 0 1 15 19.5c-1.604 0-3.052-.425-4.239-1.135a11.542 11.542 0 0 1-2.31.122C10.09 20.034 12.419 21 15 21a9.96 9.96 0 0 0 3.415-.596l3.854 1.102a1 1 0 0 0 1.237-1.237l-.868-3.036C23.501 16.006 24 14.555 24 13c0-3.18-2.087-5.926-5.11-7.216Z" fill="#fff"/></svg>
